build/system/ArrowRightSolid.svg

<svg xmlns="http://www.w3.org/2000/svg" fill="none" viewBox="0 0 24 24" focusable="false"><path d="M0 0H24V24H0z"/><path fill="#74767B" fill-rule="evenodd" d="M3 12C3 7.02944 7.02944 3 12 3C16.9706 3 21 7.02944 21 12C21 16.9706 16.9706 21 12 21C7.02944 21 3 16.9706 3 12ZM12.5 16.5582C12.32 16.5582 12.15 16.4882 12.02 16.3482C11.78 16.0782 11.8 15.6682 12.06 15.4282L14.9476 12.5945L8 12.5945C7.64102 12.5945 7.35 12.3035 7.35 11.9445C7.35 11.5855 7.64102 11.2945 8 11.2945L14.9406 11.2945L12.04 8.47817C11.77 8.23817 11.76 7.82817 12 7.55817C12.24 7.29817 12.65 7.27817 12.92 7.51817L16.98 11.4245C17.29 11.7045 17.29 12.1845 16.98 12.4645L12.94 16.3882C12.81 16.5082 12.66 16.5582 12.5 16.5582Z"/></svg>

<svg xmlns="http://www.w3.org/2000/svg" fill="none" viewBox="0 0 24 24" focusable="false"><path fill="#74767B" fill-rule="evenodd" d="M3 12c0-4.98 4.02-9 9-9 4.97 0 9 4.02 9 9a9 9 0 0 1-9 9c-4.98 0-9-4.03-9-9m9.5 4.55c-.19 0-.36-.07-.48-.21a.64.64 0 0 1 .04-.92l2.88-2.83H8c-.36 0-.65-.29-.65-.65s.29-.65.65-.65h6.94l-2.9-2.82a.64.64 0 0 1-.04-.92c.24-.26.64-.28.91-.04l4.07 3.91c.31.28.31.76 0 1.04l-4.05 3.92c-.12.12-.27.17-.43.17"/></svg>
